X:1
T:Qui moritur Christo
T:Qui moritur Christo
T:Christiaan Hollander
C:Christiaan Hollander
%%score [ 1 2 3 4 ]
L:1/8
Q:1/4=120
M:2/2
K:F
V:1 treble nm="Soprano" snm="S"
V:2 treble nm="Alto" snm="A"
V:3 treble-8 nm="Tenor" snm="T"
V:4 bass nm="Bass" snm="B"
V:1
 c4 c3 c | A2 f4 d2- | d2 g3 fed | e f2 e f4 | f4 f3 f | d2 d2 g4 | c4 B2 G2 | A2 c2 c3 c | %8
w: Qui mo- ri-|tur Chri- sto|_ vi- * * *|* * * vit,|qui mo- ri-|tur Chri- sto|vi- * *|vit, qui mo- ri-|
 A2 f2 f3 f | d2 d2 e2 e2 | c2 c2 c3 c | A2 f2 e2 d2- | dc c4 B2 | c8 | z4 c4 | c2 A2 B2 G2 | %16
w: tur,- qui mo- ri-|tur Chri- sto vi-|vit, qui mo- ri-|tur Chri- sto vi-||vit,|qui|vi- vit in il-|
 F2 f2 f3 e | d2 cB A4 | z2 f2 f4- | f2 d4 d2 | g6 c2 | c8 | A4 B4- | B2 B2 A4 | c4 d4- | %25
w: lo, in il- *|* * * lo,|qui vi-|* vit in|il- *|lo|non mo-|* ri- tur,|non mo-|
 d2 d2 c2 f2- | f2 ed c2 d2- | dc c4 B2 | c2 e2 f4- | f2 ed e2 c2 | c4 c4- | c2 B2 G4 | G8 | %33
w: * ri- tur, non|_ _ _ _ mo-|* * * ri-|tur, non est|_ _ _ mors, non|est mors,|_ non est|mors,|
 c3 c d4 | c3 A B2 G2 | A4 f4- | f4 e4- | e4 d4- | d4 c4- | c4 B4- | B4 A4- | A4 G4- | G4 F4 | %43
w: u- bi Chri-|stus _ _ ad-|est, u-|* bi|_ Chri-|* stus,|_ u-|* bi|_ Chri-|* stus|
 F4 F4- | F8 || F3 F c2 c2 | c2 A2 d2 d2- | dcdc/B/ A2 f2- | fe/d/ e2 f2 FG | AB A4 G2 | %50
w: ad- est.|_|Vi- ve- re di-|sce De- i na-|* * * * * to, De-|* * * * i na- *||
 A2 FF c2 c2 | c2 A2 d2 d2 | c2 f4 ed | e2 c2 dc f2- | f2 e2 d2 gf | ed e3 d c2- | c2 B2 c4 | %57
w: to, vi- ve- re di-|sce De- i na-|to, De- * *|* i na- * *|* * to, na- *||* * to,|
 z2 c3 c f2 | c2 f4 e2 | f2 f4 ed | e2 c4 B2 | c4 F3 F | c2 c2 c2 A2 | d2 d2 c4 | z2 c2 c3 c | %65
w: vi- ve- re|di- sce De-|i na- * *||to, vi- ve-|re di- sce De-|i na- to,|qui mu- ne-|
 d2 e2 f2 c2- | c2 d2 e2 f2- | fe d4 c2 | B2 A4 G2 | A2 FG AB cA | B4 AB cA | BAAG/F/ G4- | %72
w: ra vi- tae lar-|* gi- * *|||tur, lar- * * * * *|* gi- * * *|* * * * * tur,|
 G4 z2 c2 | c3 c d2 e2 | f2 d2 e4 | d2 g3 fde | f2 f2 e2 d2- | dc c4 B2 | c2 e2 f4- | f2 ed e2 c2 | %80
w: _ qui|mu- ne- ra vi-|tae lar- gi-|tur, vi- * * *|* tae lar- gi-||tur, non est|_ _ _ mors, non|
 c4 c4- | c2 B2 G4 | G8 | c3 c d4 | c3 A B2 G2 | A4 f4- | f4 e4- | e4 d4- | d4 c4- | c4 B4- | %90
w: est mors,|_ non est|mors,|u- bi Chri-|stus ad- est, _|_ u-|* bi|_ Chri-|* stus,|_ u-|
 B4 A4- | A4 G4 | F4 F4 | F4 F4- | F8 |] %95
w: * bi|_ Chri-|* stus|ad- est.|_|
V:2
 z4 F4 | F3 F D2 B2- | B2 G2 c3 B | A2 G2 A2 A2 | A3 A A2 B2 | B6 G2- | G2 F4 E2 | F2 A2 A3 A | %8
w: Qui|mo- ri- tur Chri-|* sto vi- *|* * vit, qui|mo- ri- tur Chri-|sto vi-||vit, qui mo- ri-|
 F2 A2 A2 F2 | G2 G2 G3 G | E6 A2 | AGAB c2 BA | G2 A2 G4 | z2 G2 G2 A2 | G F2 E F2 A2 | %15
w: tur Chri- sto vi-|vit, qui mo- ri-|tur Chri-|sto _ _ _ _ _ _|vi- * vit,|qui vi- vit|in il- * lo, qui|
 G2 F2 G F2 E | F2 A3 G F2- | FD E2 F2 A2 | A4 F2 A2 | B2 B2 z2 B2 | B4 G2 A2 | G4 A4 | F6 ED | %23
w: vi- vit in il- *|lo, in _ il-|* * * lo, qui|vi- vit in|il- lo, qui|vi- vit in|il- lo|non _ _|
 E F2 E F4 | A4 B4- | B2 B2 A2 c2 | c3 B A2 G2 | A2 F2 G4 | z2 G2 A4 | G6 G2 | A4 G4- | %31
w: mo- * ri- tur,|non mo-|* ri- tur, non|mo- * * ri-|* * tur,|non est|mors, non|est mors,|
 G2 G2 E3 D/C/ | D4 E2 G2- | G2 G2 B2 G2- | GF F4 E2 | F2 F2 A2 A2- | AG A2 G2 G2 | c2 c2 B2 B2 | %38
w: _ non est _ _|_ mors, u-|* bi Chri- stus|_ _ ad- *|est, u- bi Chri-|* stus ad- est, u-|bi Chri- stus- ad-|
 A2 G2 G2 G2 | A2 G2 G2 F2 | G2 F2 F2 F2 | F2 F2 _E2 E2 |"^b""^b" E2 E2 D4- | D2 D4 CB, | C8 || %45
w: est, u- bi Chri-|stus ad- est, u-|bi Chri- stus ad-|est, u- bi Chri-|stus ad- est,|_ ad- * *|est.|
 z4 C3 C | F2 F2 F2 D2 | G2 G2 F2 A2 | G3 G A3 G | FE F4 E2 | F2 A3 G/F/ G2 | F2 CC F2 F2 | %52
w: Vi- ve-|re di- sce De-|i na- * to,|di- sce De- i|na- * * *|to, na- * * *|to, vi- ve- re di-|
 F2 A4 GF | G2 A2 BAAG/F/ | G8 | z2 G2 E2 F2 | G4 G3 G | A6 A2 | A2 F2 B2 B2 | A2 c3 BcB/A/ | %60
w: sce De- * *|* i na- * * * *|to,|na- * *|to, vi- ve-|re di-|sce De- i na-|to, na- * * * *|
 G2 A3 G F2 | E2 c3 c B2 | A3 G/F/ G2 F2 | GF F4 E2 | F4 F2 F2- | FF G2 A2 A2 | A4 B2 c2- | %67
w: |to, vi- ve- re|di- * * sce De-|i _ na- *|to, qui mu-|* ne- ra vi- tae|lar- gi- tur,|
 c2 A2 B2 AG | F2 F2 D2 E2 | FGAB c2 A2- | A2 G2 A2 G2- | GF F4 ED | E F2 E F2 ED | C2 E2 D2 C2- | %74
w: _ lar- gi- * *|tur, qui mu- ne-|ra _ _ _ _ vi-|* tae lar- gi-|||tur, lar- * *|
 C2 B,2 C2 c2 | c2 BA B2 B2 | c2 BA G2 B2 | A2 F2 G4 | G2 G2 A4 | G6 G2 | A4 G4- | G2 G2 E3 D/C/ | %82
w: * gi- tur, qui|mu- * * * ne-|ra _ _ _ vi-|tae lar- gi-|tur non est|mors, non|est mors,|_ non est _ _|
 D4 E2 G2- | G2 G2 B2 G2- | GF F4 E2 | F2 F2 A2 A2- | AG A2 G2 G2 | c2 c2 B2 B2 | A2 G2 G2 G2 | %89
w: _ mors u-|* bi Chri- stus|_ _ ad- *|est,- u bi Chri-|* stus ad- est, u-|bi Chri- stus ad-|est, u- bi Chri-|
 A2 G2 G2 F2 | G2 F2 F2 F2 | F2 F2 _E2 E2 |"^b""^b" E2 E2 D4- | D2 D4 CB, | C8 |] %95
w: stus ad- est, u-|bi Chri- stus ad-|est, u- bi Chri-|stus ad- est,|_ ad- * *|est.|
V:3
 z8 | z8 | z4 c4 | c3 c A4- | A2 f4 d2- | d2 g3 fed | e2 c2 d2 B2 | c4 z2 c2 | cc A4 d2 | %9
w: ||Qui|mo- ri- tur|_ Chri- sto|_ vi- * * *||vit, qui|mo- ri- tur Chri-|
 d2 B2 c4- | c4 z2 c2 | f3 e/d/ c2 d2 | e2 f2 d4 | c2 e2 e2 c2 | d2 B2 c2 c2 | c2 d2 B2 c2 | %16
w: sto vi- vit,|_ Chri-|sto _ _ _ _|vi- * *|vit, qui vi- vit|in il- lo, qui|vi- vit in il-|
 F2 c2 c2 d2 | B2 B2 c2 c2 | c2 A4 f2 | f4 d4- | d2 d2 e2 f2- | f2 e2 f2 c2- | c2 d3 cBA | %23
w: lo, qui vi- vit|in il- lo, qui|vi- vit,- qui|vi- vit|_ in il- *|* * lo non|_ mo- * * *|
 B2 B2 c2 c2- | c2 f3 edc | d2 d2 f3 g | a2 gf e2 d2 | e2 c2 d2 d2 | c2 c2 c4 | c4 z2 e2 | f6 ed | %31
w: * ri- tur, non|_ mo- * * *|* ri- tur, non|mo- * * * ri-|tur, non mo- ri-|tur, non est|mors, non|est _ _|
 e2 d3 c c2- |"^-natural" c2 B2 c2 e2- | e2 e2 f2 d2 | e2 dc d2 B2 | c2 d2 d2 c2 | c2 A2 c2 e2 | %37
w: _ _ _ _|* * mors u-|* bi Chri- stus|ad- * * est, u-|bi Chri- stus,- u-|bi Chri- stus, u-|
 c2 e2 g2 d2 | f2 d2 e2 e2 | c2 e2 d3 d | B2 d2 c2 c2 | d2 A2 c2 B2 | c2 G2 B4 | A2 B4 AG | A8 || %45
w: bi Chri- sts ad-|est, u- bi Chri-|stus ad- est, u|bi Chri- stus ad|est, u- bi Chri-|stus ad est,|ad- * * *|est.|
 z8 | z8 | z4 F3 F | c2 c2 c2 A2 | c2 d4 B2 | c2 d2 e f2 e | f3 F A2 B2 | A2 FF c2 c2 | %53
w: ||Vi- ve-|re di- sce De-|i na- *|to, vi- ve- re di-|sce De- i na-|to, Vi- ve- re di-|
 c2 A2 d2 d2 | c2 GA Bc d2 | B2 G2 c4 | d4 c2 c2- | cc f2 f2 f2- | f2 d2 g2 g2 | f2 a4 gf | e4 f4 | %61
w: sce De- i na-|to, De- * * * *|i na- *|* to, vi-|* ve- re di- sce|_ De- i na-|to, De- * *||
 gfed c2 d2 | c2 f2 edcB/A/ | B3 A G4 | F2 A4 A2 | F2 c2 A2 f2 | f3 f g2 a2- | ag f2 e4 | %68
w: |i, De- * * * * *|i _ na-|to, De- i|na- * to, qui|mu- ne- ra vi-|* * * tae|
 d2 c2 B4 | A2 c2 c3 c | d2 e2 f2 c2 | d4 c2 c2 | cB/A/ G2 F2 G2 | A2 G2 B2 AG | A2 F2 G2 g2 | %75
w: lar- gi- *|tur, qui mu- ne-|ra vi- tae lar-|gi- tur, qui|mu- * * * ne- ra|vi- tae lar- * *|* gi- tur, qui|
 g3 f/e/ dc d2 | c2 d2 efge | fedc d4 | c2 c2 c4 | c4 z2 e2 | f6 ed | e2 d3 c c2- | %82
w: mu- * * * * ne-|ra lar- gi- * * *||tur, non est|mors, non|est _ _|_ _ _ _|
"^-natural" c2 B2 c2 e2- | e2 e2 f2 d2 | e2 dc d2 B2 | c2 d2 d2 c2 | c2 A2 c2 e2 | c2 e2 g2 d2 | %88
w: * * mors u-|* bi Chri- stus|ad- * * est, u-|bi Chri- stus, u-|bi Chri- stus, u-|bi Chri- stus ad-|
 f2 d2 e2 e2 | c2 e2 d3 d | B2 d2 c2 c2 | d2 A2 c2 B2 | c2 G2 B4 | A2 B4 AG | A8 |] %95
w: est, u- bi Chri-|stus ad- est, u-|bi Chri- stus ad-|est, u- bi Chri-|stus ad est,|ad- * * *|est.|
V:4
 z8 | z8 | z8 | z4 F,4 | F,3 F, D,2 B,2- | B,2 G,4 C2- | CB, A,2 G,4 | F,4 F,4 | %8
w: |||Qui|mo- ri- tur Chri-|* sto vi-||vit, qui|
"^-natural" F,3 F, D,4 | G,4 C,2 C,2 | C,3 C, A,,2 F,2- | F,2 D,2 A,2 B,2 | C2 F,2 G,4 | %13
w: mo- ri- tur|Chri- sto, qui|mo- ri- tur Chri-|* sto vi- *||
 C,2 C2 C2 A,2 | B,2 G,2 F,4 | z8 | F,4 F,2 D,2 | G,2 G,2 F,2 F,2 | F,4 D,4 | B,4 B,4 | G,4 C4 | %21
w: vit, qui vi- vit|in il- lo,||qui vi- vit|in il- lo, qui|vi- vit|in il-|lo, in|
 C4 F,4 | F,4 G,4- |"^-natural" G,2 G,2 F,4 | F,4 B,4- | B,2 B,2 F,2 F,2 | C6 B,2 | A,2 A,2 G,4 | %28
w: i- lo|non mo-|* ri- tur,|non mo-|* ri- tur, non|mo- *|* ri- tur,|
 z2 C,2 F,4 | C,4 C,4 | F,4 C,4- | C,2 G,2 C4 | G,4 z2 C2- | C2 C2 B,4 | A,4 G,4 | %35
w: non est|mors, non|est mors,|_ non est|mors u-|* bi Chri-|stus ad-|
 F,2 D,2 D,2 F,2- | F,E, F,2 C,2 C2 | A,2 C2 G,2 G,2 | D,2 G,2 C,2 C2 | A,2 C2 G,2 B,2 | %40
w: est, u- bi Chri-|* stus ad- est, u-|bi Chri- stus ad-|est, u- bi Chri-|stus, ad- est, u|
 G,2 B,2 F,2 F,2 | D,2 F,2 C,2 _E,2 |"^b" C,2 E,2 B,,3 C, | D,2 B,,2 F,4- | %44
w: bi- Chri- stus ad|est, u- bi Chri-|stus ad est, _|_ ad- est.|
"^SECUNDA\n     PARS" F,8 || z8 | z8 | z8 | C,3 C, F,2 F,2 | F,2 D,2 G,2 G,2 | F,E, D,2 C,2 C,C, | %51
w: _||||Vi- ve- re di-|sce De- i na-|* * * to, vi- ve-|
 F,2 F,2 D,2 B,,2 | F,2 D,2 C,4 | z8 | C,3 C, G,2 G,2 | G,2 E,2 A,2 A,2 | G,4 C,3 C, | F,8 | z8 | %59
w: re di- sce De-|i na- to,||vi- ve- re di-|sce De- i na-|to, vi- ve-|re,||
 F,3 F, C2 C2 | C2 A,2 D2 D2 | C4 A,2 B,2 | F,3 E,/D,/ C,2 F,2 | B,,4 C,4 | z2 F,4 F,2 | %65
w: vi- ve- re di-|sce De- i na-|to, De- i|na- * * * *|* to,|De- i|
 D,2 C,2 F,4 | z4 z2 F,2 | F,3 F, G,2 A,2 | B,2 F,2 G,4 | F,8 | z8 | z4 z2 C,2 | C,3 C, D,2 E,2 | %73
w: na- * to|qui|mu- ne- ra vi-|tae lar- gi-|tur,||qui|mu- ne- ra vi-|
 F,2 C,2 G,2 E,2 | D,4 C,4 | G,4 G,3 G, | A,2 B,2 C2 G,2 | A,4 G,4 | z2 C,2 F,4 | C,4 C,4 | %80
w: tae lar- * *|gi- tur,|qui mu- ne-|ra vi- tae lar-|gi- tur,|non est|mors, non|
 F,4 C,4- | C,2 G,2 C4 | G,4 z2 C2- | C2 C2 B,4 | A,4 G,4 | F,2 D,2 D,2 F,2- | F,E, F,2 C,2 C2 | %87
w: est mors,|_ non est|mors u-|* bi Chri-|stus ad-|est, u- bi Chri-|* stus ad- est, u-|
 A,2 C2 G,2 G,2 | D,2 G,2 C,2 C2 | A,2 C2 G,2 B,2 | G,2 B,2 F,2 F,2 | D,2 F,2 C,2 _E,2 | %92
w: bi Chri- stus ad-|est, u- bi Chri-|stus ad- est, u,-|bi Chri- stus ad-|est, u- bi Chri-|
"^b" C,2 E,2 B,,3 C, | D,2 B,,2 F,4- | F,8 |] %95
w: stus ad- est, _|_ ad- est.|_|

